X: 26
T: The "Wilde" Life
C: Armand Aromin
H: 3/14/05
M: 6/8
L: 1/8
R: Jig
K: Bmin
B,A,B, ABA | aba fec | B3 cBA | F3 F2 G, |
B,A,B, ABA | aba fec | B3 cBA |1 B3 B2 G, :|2 B3 B2 e ||
f3 fec | Ace fec | d3 fdd | add fdd |
f3 fec | Ace fec | dfe cBA |1 B3 B2 e :|2 B3 B2 A ||
FBB FBB | FAA FAA | FBB FBB | B3 dBA |
FBB FBB | FAA FAA | BdB AFA |1 B3 B2 A :|2 B3 B2 G, |]
